public/favicon-dark.svg

<svg width="128" height="128" viewBox="0 0 128 128" fill="none" xmlns="http://www.w3.org/2000/svg">
<mask id="mask0_115_45" style="mask-type:alpha" maskUnits="userSpaceOnUse" x="0" y="0" width="128" height="128">
<path d="M128 0H0V128H128V0Z" fill="black"/>
</mask>
<g mask="url(#mask0_115_45)">
<circle cx="63.375" cy="62.875" r="57.5" fill="#15142B"/>
<circle cx="63.375" cy="62.875" r="57" stroke="url(#paint0_radial_115_45)" stroke-opacity="0.3"/>
<g filter="url(#filter0_d_115_45)">
<mask id="path-4-inside-1_115_45" fill="white">
<path d="M63.2686 67.5261C86.7383 67.5262 106.803 78.5716 114.901 97.0857H111.031C110.98 97.0882 106.015 97.3277 102.849 96.5916C98.5746 95.5976 95.9745 94.2534 94.4453 93.1628C87.1661 85.5469 76.2994 80.8728 65.2451 80.8728C64.5063 80.8728 63.7687 80.891 63.0332 80.9236L62.9082 80.8728C62.9014 80.8746 62.8156 80.8975 62.6592 80.9402C52.6478 81.4597 43.074 84.9862 36.4365 91.0789C30.5487 94.2851 26.6641 96.4929 19.2109 96.4929C17 96.4929 14.4406 96.378 12.0215 96.2283C20.3584 78.2311 40.1633 67.5263 63.2686 67.5261Z"/>
</mask>
<path d="M63.2686 67.5261C86.7383 67.5262 106.803 78.5716 114.901 97.0857H111.031C110.98 97.0882 106.015 97.3277 102.849 96.5916C98.5746 95.5976 95.9745 94.2534 94.4453 93.1628C87.1661 85.5469 76.2994 80.8728 65.2451 80.8728C64.5063 80.8728 63.7687 80.891 63.0332 80.9236L62.9082 80.8728C62.9014 80.8746 62.8156 80.8975 62.6592 80.9402C52.6478 81.4597 43.074 84.9862 36.4365 91.0789C30.5487 94.2851 26.6641 96.4929 19.2109 96.4929C17 96.4929 14.4406 96.378 12.0215 96.2283C20.3584 78.2311 40.1633 67.5263 63.2686 67.5261Z" fill="url(#paint1_linear_115_45)" fill-opacity="0.8"/>
<path d="M63.2686 67.5261L63.2686 66.5261L63.2685 66.5261L63.2686 67.5261ZM114.901 97.0857V98.0857H116.43L115.818 96.6849L114.901 97.0857ZM111.031 97.0857V96.0857H111.007L110.983 96.0869L111.031 97.0857ZM102.849 96.5916L102.622 97.5656L102.622 97.5656L102.849 96.5916ZM94.4453 93.1628L93.7224 93.8538L93.7877 93.9221L93.8647 93.977L94.4453 93.1628ZM65.2451 80.8728L65.2451 79.8728L65.2451 79.8728L65.2451 80.8728ZM63.0332 80.9236L62.6568 81.8501L62.8592 81.9323L63.0775 81.9226L63.0332 80.9236ZM62.9082 80.8728L63.2846 79.9463L62.9739 79.8201L62.6499 79.9067L62.9082 80.8728ZM62.6592 80.9402L62.711 81.9388L62.8186 81.9333L62.9226 81.9049L62.6592 80.9402ZM36.4365 91.0789L36.9148 91.9571L37.0224 91.8985L37.1127 91.8156L36.4365 91.0789ZM19.2109 96.4929L19.2109 97.4929H19.2109V96.4929ZM12.0215 96.2283L11.1141 95.8079L10.4989 97.136L11.9597 97.2264L12.0215 96.2283ZM63.2686 67.5261L63.2685 68.5261C86.4478 68.5262 106.085 79.4251 113.985 97.4865L114.901 97.0857L115.818 96.6849C107.521 77.7182 87.0289 66.5262 63.2686 66.5261L63.2686 67.5261ZM114.901 97.0857V96.0857H111.031V97.0857V98.0857H114.901V97.0857ZM111.031 97.0857L110.983 96.0869C110.905 96.0906 106.082 96.3167 103.075 95.6175L102.849 96.5916L102.622 97.5656C105.947 98.3387 111.055 98.0857 111.08 98.0845L111.031 97.0857ZM102.849 96.5916L103.075 95.6175C98.9082 94.6485 96.433 93.3521 95.0259 92.3487L94.4453 93.1628L93.8647 93.977C95.516 95.1547 98.241 96.5467 102.622 97.5656L102.849 96.5916ZM94.4453 93.1628L95.1682 92.4719C87.6969 84.6549 76.5673 79.8728 65.2451 79.8728V80.8728V81.8728C76.0314 81.8728 86.6353 86.4389 93.7224 93.8538L94.4453 93.1628ZM65.2451 80.8728L65.2451 79.8728C64.4899 79.8728 63.7375 79.8914 62.9889 79.9246L63.0332 80.9236L63.0775 81.9226C63.7999 81.8906 64.5226 81.8728 65.2451 81.8728L65.2451 80.8728ZM63.0332 80.9236L63.4096 79.9971L63.2846 79.9463L62.9082 80.8728L62.5318 81.7993L62.6568 81.8501L63.0332 80.9236ZM62.9082 80.8728L62.6499 79.9067C62.6499 79.9067 62.6499 79.9067 62.6498 79.9068C62.6497 79.9068 62.6496 79.9068 62.6494 79.9069C62.649 79.907 62.6486 79.9071 62.6481 79.9072C62.647 79.9075 62.6456 79.9079 62.6439 79.9083C62.6404 79.9093 62.6357 79.9105 62.6297 79.9121C62.6178 79.9153 62.601 79.9198 62.5796 79.9256C62.5367 79.9372 62.475 79.9539 62.3957 79.9755L62.6592 80.9402L62.9226 81.9049C63.0765 81.8628 63.1604 81.8405 63.1665 81.8389L62.9082 80.8728ZM62.6592 80.9402L62.6074 79.9415C52.4119 80.4706 42.6016 84.0624 35.7603 90.3422L36.4365 91.0789L37.1127 91.8156C43.5465 85.9099 52.8837 82.4488 62.711 81.9388L62.6592 80.9402ZM36.4365 91.0789L35.9583 90.2006C30.0776 93.403 26.389 95.4929 19.2109 95.4929V96.4929V97.4929C26.9391 97.4929 31.0198 95.1672 36.9148 91.9571L36.4365 91.0789ZM19.2109 96.4929L19.2109 95.4929C17.0299 95.4929 14.4939 95.3794 12.0833 95.2302L12.0215 96.2283L11.9597 97.2264C14.3874 97.3766 16.9701 97.4929 19.2109 97.4929L19.2109 96.4929ZM12.0215 96.2283L12.9289 96.6486C21.0627 79.0896 40.4499 68.5263 63.2686 68.5261L63.2686 67.5261L63.2685 66.5261C39.8768 66.5263 19.654 77.3725 11.1141 95.8079L12.0215 96.2283Z" fill="url(#paint2_radial_115_45)" fill-opacity="0.3" mask="url(#path-4-inside-1_115_45)"/>
<path d="M59.7446 17.6239C65.2564 15.4575 75.1671 16.6353 75.1671 16.6353L56.3339 52.9176L46.9173 71.0588L42.209 80.1293L39.8548 84.6646C39.8548 84.6646 38.7044 87.6083 37.5007 89.1999C35.2397 92.1893 32.3812 93.4475 29.5917 94.6373C27.6935 95.4469 26.6531 95.7284 24.6486 96.2191C23.3101 96.5468 12.4878 96.2191 12.4878 96.2191C12.245 96.3893 11.9378 96.1163 12.0808 95.8566C14.682 91.1323 25.4443 71.5733 32.5576 58.4539C36.5833 51.0289 38.7778 46.8324 42.7404 39.3735C44.7903 35.5147 45.8292 33.2908 47.98 29.4873C49.0361 27.6198 50.7482 24.742 50.7482 24.742C50.7482 24.742 52.8687 21.7215 54.7026 20.2932C56.4604 18.9242 57.6711 18.4389 59.7446 17.6239Z" fill="url(#paint3_linear_115_45)" fill-opacity="0.8"/>
<path d="M69.5186 16.8176C71.0879 16.8293 72.4881 16.9077 73.4951 16.9836C73.8405 17.0097 74.1393 17.0373 74.3828 17.0598L55.8896 52.6868L46.4736 70.8284L41.7656 79.8987L39.4111 84.4338L39.3984 84.4583L39.3887 84.4827V84.4846L39.3398 84.6067C39.3068 84.6883 39.2576 84.8073 39.1953 84.9553C39.0706 85.2515 38.8923 85.6632 38.6768 86.1233C38.2413 87.0526 37.6702 88.1469 37.1016 88.8987C34.9287 91.7713 32.1859 92.9868 29.3955 94.177C27.533 94.9714 26.5217 95.2459 24.5293 95.7336C24.4142 95.7617 24.1448 95.7911 23.7158 95.8137C23.3014 95.8356 22.776 95.85 22.1777 95.8577C20.9816 95.8729 19.5081 95.8625 18.0732 95.842C16.6392 95.8216 15.2463 95.7905 14.2119 95.7649C13.695 95.7521 13.2678 95.741 12.9697 95.7327C12.8736 95.73 12.7906 95.7268 12.7227 95.7249C15.6422 90.4217 26.0567 71.4934 32.9971 58.6926C37.0241 51.2652 39.2202 47.0644 43.1816 39.6077C45.2431 35.7273 46.2674 33.5315 48.415 29.7336C48.9409 28.8037 49.6316 27.6197 50.1914 26.6672C50.4709 26.1916 50.7178 25.7744 50.8945 25.4758C50.9829 25.3265 51.0538 25.2065 51.1025 25.1243C51.1267 25.0835 51.1455 25.0519 51.1582 25.0305C51.1611 25.0256 51.1637 25.0207 51.166 25.0168C51.1696 25.0118 51.174 25.0052 51.1797 24.9973C51.1951 24.9757 51.218 24.9433 51.248 24.9016C51.3083 24.8181 51.3968 24.6966 51.5088 24.5461C51.733 24.245 52.0516 23.8285 52.4258 23.3684C53.181 22.4399 54.14 21.3652 55.0098 20.6877C56.7074 19.3656 57.8614 18.9013 59.9277 18.0891C62.5878 17.0436 66.3598 16.7941 69.5186 16.8176Z" stroke="url(#paint4_radial_115_45)" stroke-opacity="0.3"/>
<path d="M73.4863 19.4792L63.2047 39.5712L85.8537 81.1706L92.0976 90.5364C92.0976 90.5364 94.4237 93.6453 97.2132 94.835C99.1113 95.6447 100.152 95.9262 102.156 96.4168C103.495 96.7445 105.715 96.9111 105.715 96.9111L112.39 96.7803H115.512L94.3956 58.2941L73.4863 19.4792Z" fill="url(#paint5_linear_115_45)" fill-opacity="0.8"/>
<path d="M63.771 39.5632L86.2798 80.907L92.4985 90.238L92.5024 90.2429C92.5063 90.248 92.5128 90.2567 92.521 90.2673C92.5374 90.2886 92.5624 90.3205 92.5952 90.3621C92.6613 90.4456 92.7601 90.5679 92.8872 90.7185C93.1416 91.0199 93.5098 91.435 93.9624 91.8855C94.8756 92.7945 96.1013 93.8167 97.4097 94.3748C99.272 95.1691 100.283 95.4437 102.275 95.9314C102.912 96.0873 103.775 96.2076 104.495 96.2898C104.851 96.3305 105.166 96.3611 105.392 96.3816C105.505 96.3918 105.596 96.3999 105.658 96.405C105.686 96.4074 105.709 96.4087 105.725 96.4099L112.38 96.28H114.667L93.9575 58.5349L93.9556 58.531L73.4985 20.5535L63.771 39.5632Z" stroke="url(#paint6_radial_115_45)" stroke-opacity="0.3"/>
</g>
</g>
<defs>
<filter id="filter0_d_115_45" x="-44.9785" y="16.3157" width="217.491" height="204.809" filterUnits="userSpaceOnUse" color-interpolation-filters="sRGB">
<feFlood flood-opacity="0" result="BackgroundImageFix"/>
<feColorMatrix in="SourceAlpha" type="matrix" values="0 0 0 0 0 0 0 0 0 0 0 0 0 0 0 0 0 0 127 0" result="hardAlpha"/>
<feOffset dy="67"/>
<feGaussianBlur stdDeviation="28.5"/>
<feColorMatrix type="matrix" values="0 0 0 0 0 0 0 0 0 0 0 0 0 0 0 0 0 0 0.25 0"/>
<feBlend mode="normal" in2="BackgroundImageFix" result="effect1_dropShadow_115_45"/>
<feBlend mode="normal" in="SourceGraphic" in2="effect1_dropShadow_115_45" result="shape"/>
</filter>
<radialGradient id="paint0_radial_115_45" cx="0" cy="0" r="1" gradientTransform="matrix(-25.6475 28.7047 -33.5671 -13.6865 68.7106 61.3896)" gradientUnits="userSpaceOnUse">
<stop stop-color="white"/>
<stop offset="1" stop-color="#FFF9F9" stop-opacity="0"/>
</radialGradient>
<linearGradient id="paint1_linear_115_45" x1="94.6334" y1="71.9193" x2="89.0881" y2="105.482" gradientUnits="userSpaceOnUse">
<stop offset="0.0432692" stop-color="white"/>
<stop offset="0.1875" stop-color="#7541EF"/>
<stop offset="0.466346" stop-color="#3C03C1"/>
<stop offset="0.764423" stop-color="#885EE9"/>
<stop offset="0.908654" stop-color="white"/>
</linearGradient>
<radialGradient id="paint2_radial_115_45" cx="0" cy="0" r="1" gradientTransform="matrix(-18.2534 7.09804 -23.8898 -3.38437 57.0438 82.4665)" gradientUnits="userSpaceOnUse">
<stop stop-color="white"/>
<stop offset="1" stop-color="#FFF9F9" stop-opacity="0"/>
</radialGradient>
<linearGradient id="paint3_linear_115_45" x1="75.1671" y1="16.3157" x2="19.2112" y2="89.3746" gradientUnits="userSpaceOnUse">
<stop offset="0.173077" stop-color="#FFFA72" stop-opacity="0.9"/>
<stop offset="0.600962" stop-color="#C276F8"/>
<stop offset="0.942308" stop-color="#CA9A5C" stop-opacity="0.9"/>
</linearGradient>
<radialGradient id="paint4_radial_115_45" cx="0" cy="0" r="1" gradientUnits="userSpaceOnUse" gradientTransform="translate(39.8734 56.9973) rotate(121.114) scale(22.5752 17.8335)">
<stop stop-color="white"/>
<stop offset="1" stop-color="#FFF9F9" stop-opacity="0"/>
</radialGradient>
<linearGradient id="paint5_linear_115_45" x1="54.6342" y1="31.2193" x2="113.951" y2="78.0486" gradientUnits="userSpaceOnUse">
<stop offset="0.120192" stop-color="#FF0000" stop-opacity="0.9"/>
<stop offset="0.769231" stop-color="#DA087C"/>
<stop offset="1" stop-color="#FF0381" stop-opacity="0.9"/>
</linearGradient>
<radialGradient id="paint6_radial_115_45" cx="0" cy="0" r="1" gradientUnits="userSpaceOnUse" gradientTransform="translate(86.9315 57.1951) rotate(58.8856) scale(22.5752 17.8335)">
<stop stop-color="white"/>
<stop offset="1" stop-color="#FFF9F9" stop-opacity="0"/>
</radialGradient>
</defs>
</svg>

<svg xmlns="http://www.w3.org/2000/svg" fill="none" viewBox="0 0 128 128"><mask id="a" width="128" height="128" x="0" y="0" maskUnits="userSpaceOnUse" style="mask-type:alpha"><path fill="#000" d="M128 0H0v128h128z"/></mask><g mask="url(#a)"><circle cx="63.375" cy="62.875" r="57.5" fill="#15142b"/><circle cx="63.375" cy="62.875" r="57" stroke="url(#b)" stroke-opacity=".3"/><g filter="url(#c)"><mask id="f" fill="#fff"><path d="M63.269 67.526c23.47 0 43.534 11.046 51.632 29.56h-3.87c-.051.002-5.016.242-8.182-.494-4.274-.994-6.874-2.339-8.404-3.43-7.279-7.615-18.146-12.29-29.2-12.29q-1.108.001-2.212.052l-.125-.051-.249.067c-10.011.52-19.585 4.046-26.222 10.139-5.888 3.206-9.773 5.414-17.226 5.414-2.211 0-4.77-.115-7.19-.265 8.337-17.997 28.142-28.702 51.248-28.702"/></mask><path fill="url(#d)" fill-opacity=".8" d="M63.269 67.526c23.47 0 43.534 11.046 51.632 29.56h-3.87c-.051.002-5.016.242-8.182-.494-4.274-.994-6.874-2.339-8.404-3.43-7.279-7.615-18.146-12.29-29.2-12.29q-1.108.001-2.212.052l-.125-.051-.249.067c-10.011.52-19.585 4.046-26.222 10.139-5.888 3.206-9.773 5.414-17.226 5.414-2.211 0-4.77-.115-7.19-.265 8.337-17.997 28.142-28.702 51.248-28.702"/><path fill="url(#e)" fill-opacity=".3" d="M63.269 67.526v-1zm51.632 29.56v1h1.529l-.612-1.401zm-3.87 0v-1h-.048zm-8.182-.494-.227.974zm-8.404-3.43-.723.692.066.068.077.055zm-29.2-12.29v-1zm-2.212.052-.376.926.202.082.218-.01zm-.125-.051.377-.927-.311-.126-.324.087zm-.249.067.052.999.108-.006.104-.028zM36.437 91.08l.478.878.107-.058.09-.083zM19.21 96.493v1zm-7.19-.265-.907-.42-.615 1.328 1.46.09zm51.25-28.702v1c23.179 0 42.816 10.9 50.716 28.96l.916-.4.917-.401c-8.297-18.967-28.79-30.159-52.55-30.159zm51.632 29.56v-1h-3.87v2h3.87zm-3.87 0-.048-1c-.078.005-4.901.23-7.908-.468l-.226.974-.227.974c3.325.773 8.433.52 8.458.519zm-8.182-.494.226-.974c-4.167-.97-6.642-2.266-8.05-3.27l-.58.815-.58.814c1.651 1.178 4.376 2.57 8.757 3.589zm-8.404-3.43.723-.69c-7.471-7.817-18.6-12.6-29.923-12.6v2c10.786 0 21.39 4.567 28.477 11.982zm-29.2-12.29v-1q-1.133.002-2.256.053l.044.999.044.999q1.085-.049 2.168-.05zm-2.212.052.377-.927-.125-.05-.377.926-.376.926.125.051zm-.125-.051-.258-.966h-.002l-.004.001-.014.004-.05.014-.184.05.263.964.264.965.243-.066zm-.249.067-.052-.998c-10.195.529-20.005 4.12-26.847 10.4l.677.737.676.737c6.434-5.906 15.77-9.367 25.598-9.877zM36.437 91.08l-.479-.878c-5.88 3.202-9.569 5.292-16.747 5.292v2c7.728 0 11.809-2.326 17.704-5.536zM19.21 96.493v-1c-2.181 0-4.717-.114-7.128-.263l-.062.998-.061.998c2.427.15 5.01.267 7.25.267zm-7.19-.265.908.42c8.134-17.558 27.52-28.122 50.34-28.122v-2c-23.392 0-43.615 10.847-52.155 29.282z" mask="url(#f)"/><path fill="url(#g)" fill-opacity=".8" d="M59.745 17.624c5.511-2.166 15.422-.989 15.422-.989L56.334 52.918l-9.417 18.14-4.708 9.071-2.354 4.536s-1.15 2.943-2.354 4.535c-2.261 2.99-5.12 4.248-7.91 5.437-1.898.81-2.938 1.091-4.942 1.582-1.339.328-12.161 0-12.161 0-.243.17-.55-.103-.407-.362 2.601-4.725 13.363-24.284 20.477-37.403 4.025-7.425 6.22-11.622 10.182-19.08 2.05-3.86 3.09-6.083 5.24-9.887 1.056-1.867 2.768-4.745 2.768-4.745s2.12-3.02 3.955-4.449c1.757-1.369 2.968-1.854 5.042-2.67"/><path stroke="url(#h)" stroke-opacity=".3" d="M69.519 16.818c1.569.011 2.97.09 3.976.166q.52.04.888.076L55.89 52.687l-9.416 18.141-4.708 9.07-2.355 4.536-.013.024-.01.025v.002l-.048.122a33 33 0 0 1-.663 1.517c-.436.929-1.007 2.023-1.575 2.775-2.173 2.872-4.916 4.088-7.706 5.278-1.863.794-2.874 1.069-4.867 1.557q-.171.044-.813.08c-.415.022-.94.036-1.538.044-1.196.015-2.67.004-4.105-.016a375 375 0 0 1-5.103-.11l-.247-.007c2.92-5.303 13.334-24.232 20.274-37.032 4.027-7.428 6.223-11.629 10.185-19.085 2.061-3.88 3.085-6.076 5.233-9.874.526-.93 1.217-2.114 1.776-3.067l.703-1.191.209-.352.055-.093.008-.014.014-.02.068-.095q.092-.128.26-.356c.225-.301.544-.718.918-1.178.755-.928 1.714-2.003 2.584-2.68 1.697-1.322 2.851-1.787 4.918-2.599 2.66-1.045 6.432-1.295 9.59-1.271Z"/><path fill="url(#i)" fill-opacity=".8" d="M73.486 19.48 63.205 39.57l22.649 41.6 6.244 9.365s2.326 3.11 5.115 4.299c1.898.81 2.939 1.091 4.943 1.582 1.339.328 3.559.494 3.559.494l6.675-.13h3.122L94.396 58.293z"/><path stroke="url(#j)" stroke-opacity=".3" d="M63.771 39.563 86.28 80.907l6.219 9.331.003.005.019.024a12 12 0 0 0 .366.452c.255.3.623.716 1.075 1.166.914.91 2.14 1.932 3.448 2.49 1.862.794 2.873 1.069 4.865 1.556.637.156 1.5.277 2.22.359a39 39 0 0 0 1.163.115l.067.005 6.655-.13h2.287l-20.71-37.745-.001-.004-20.457-37.977z"/></g></g><defs><radialGradient id="b" cx="0" cy="0" r="1" gradientTransform="matrix(-25.6475 28.7047 -33.5671 -13.6865 68.71 61.39)" gradientUnits="userSpaceOnUse"><stop stop-color="#fff"/><stop offset="1" stop-color="#fff9f9" stop-opacity="0"/></radialGradient><radialGradient id="e" cx="0" cy="0" r="1" gradientTransform="matrix(-18.2534 7.09804 -23.8898 -3.38437 57.044 82.466)" gradientUnits="userSpaceOnUse"><stop stop-color="#fff"/><stop offset="1" stop-color="#fff9f9" stop-opacity="0"/></radialGradient><radialGradient id="h" cx="0" cy="0" r="1" gradientTransform="rotate(121.114 3.85 39.752)scale(22.5752 17.8335)" gradientUnits="userSpaceOnUse"><stop stop-color="#fff"/><stop offset="1" stop-color="#fff9f9" stop-opacity="0"/></radialGradient><radialGradient id="j" cx="0" cy="0" r="1" gradientTransform="rotate(58.886 -7.198 105.602)scale(22.5752 17.8335)" gradientUnits="userSpaceOnUse"><stop stop-color="#fff"/><stop offset="1" stop-color="#fff9f9" stop-opacity="0"/></radialGradient><linearGradient id="d" x1="94.633" x2="89.088" y1="71.919" y2="105.482" gradientUnits="userSpaceOnUse"><stop offset=".043" stop-color="#fff"/><stop offset=".188" stop-color="#7541ef"/><stop offset=".466" stop-color="#3c03c1"/><stop offset=".764" stop-color="#885ee9"/><stop offset=".909" stop-color="#fff"/></linearGradient><linearGradient id="g" x1="75.167" x2="19.211" y1="16.316" y2="89.375" gradientUnits="userSpaceOnUse"><stop offset=".173" stop-color="#fffa72" stop-opacity=".9"/><stop offset=".601" stop-color="#c276f8"/><stop offset=".942" stop-color="#ca9a5c" stop-opacity=".9"/></linearGradient><linearGradient id="i" x1="54.634" x2="113.951" y1="31.219" y2="78.049" gradientUnits="userSpaceOnUse"><stop offset=".12" stop-color="red" stop-opacity=".9"/><stop offset=".769" stop-color="#da087c"/><stop offset="1" stop-color="#ff0381" stop-opacity=".9"/></linearGradient><filter id="c" width="217.491" height="204.809" x="-44.978" y="16.316" color-interpolation-filters="sRGB" filterUnits="userSpaceOnUse"><feFlood flood-opacity="0" result="BackgroundImageFix"/><feColorMatrix in="SourceAlpha" result="hardAlpha" values="0 0 0 0 0 0 0 0 0 0 0 0 0 0 0 0 0 0 127 0"/><feOffset dy="67"/><feGaussianBlur stdDeviation="28.5"/><feColorMatrix values="0 0 0 0 0 0 0 0 0 0 0 0 0 0 0 0 0 0 0.25 0"/><feBlend in2="BackgroundImageFix" result="effect1_dropShadow_115_45"/><feBlend in="SourceGraphic" in2="effect1_dropShadow_115_45" result="shape"/></filter></defs></svg>
